X:8092
T:John Brady's
R:Jig
S:
H:
N:
D:
Z:Adrian Scahill
M:6/8
L:1/8
K:C
cde AGE|GAB A3|eag edc|eAB AGE|cde dcA|G3 Gcd|\
eae ged|cAA A3:||\
a3 ged|ecg edc|(3ABc A GAc|dec deg|\
aeg dec|A3 GEG|cde ged|cAA A3:||\


